X: 26
T: John Byrth's Reel
N:Learned from Paddy O'Brien and Martin Hayes on videotape made by
N:Peter D. at The Plough and the Stars 25th Anniversary Concert,
N:San Francisco
N:Larry Sanger says "It's an old Kilfenora reel."
S:San Diego Session Workshop 2000-11-09
Z:Transcribed by John M. O'Hara
Z:Posted by Paddy O'Brien <hartobrien:uswest.net> irtrad-l 2000-11-18
M:C|
K:A
cd |: efed cAAB | cded cAAc | efed cdef | gfge dBcd |
efed cAAB | cAeA cAAc | efed cdef | gfge dBGB |]
K:CLydian
~c2ec gcec | ~c2ec dBGB | ~c2ec gcea | afge dBGB |
~c2ec gcec | ~c2ec dBGB | cdef ~g2eg | afge d2 |]

%%sep 1 1 500

